X:1
T:Il primo amore
T:Il primo amore
T:Pietro Labriola
T:Ernesto Del Preite
T:by IMSLP - Public Domain
T:by IMSLP - Public Domain
C:Pietro Labriola
Z:Ernesto Del Preite
Z:by IMSLP - Public Domain
%%score 1 { 2 | ( 3 4 ) }
L:1/8
Q:1/4=60
M:6/8
K:Eb
V:1 treble nm="Canto"
V:2 treble nm="Pianoforte"
V:3 bass 
V:4 bass 
V:1
!mf! B | !>!=A2 B (!>!e2 d) | (d2 c d2 c) |!<(! F2 G A2 c!<)! |!f!!>(! (B3!>)! G2 B) | %5
w: Me\-|nè sta vo\- ta|sen\- te\- me non|me las\- sà spe\-|ru\- to *|
 (!>!=A2 B f2 e) | d2 c !>!d2 c | (B2 =A _A2 F | E2) z z2 e | (!>!e2 d) (!>!e2 d) | c2 =B c2 c | %11
w: po\- sta so be\-|nu\- _ to pe|te po\- te par\-|là. E|t'ag\- gio di sto|lie\- pe\- to nze\-|
!<(! d2 d e2 f!<)! |!ff! !fermata!g3-!>(! g2 d!>)! | (!>!f2 e d{/f}e c) | (!>!c3 B2 e) | %15
w: gna\- to da lo|co\- _ re~è|ca\- ro o prim\- mo~a\-|mo\- re e|
 (!>!d2 _A) c2 B | G2 z z2 e | (!>!e2 d) (!>!e2 d) | (c2 =B c2 c) |!<(! d2 d e2 f!<)! | %20
w: non se po scor\-|dà e|t'ag\- gio di sto|lie\- pe\- to nze\-|gna\- to da lo|
 !fermata!g3-!>(! (g2 d!>)! | !>!f2 e) (d{/f}e c | !>!c2 =A B2 e) | (!>!d2 A c2 B) | E2 z z2 z | %25
w: co\- _ re~è|ca\- ro o prim\- mo~a\-|mo\- _ re e|non se po scor\-|dà!|
 z6 | z6 | z6 | z6!D.C.! |] %29
w: ||||
V:2
 z | z [B,E][B,E] z [B,E][B,E] | z [B,D][B,D] z [B,D][B,D] | z [B,D][B,D] z [B,D][B,D] | %4
 z [B,E][B,E] z [B,E][B,E] | z [B,E][B,E] z [B,E][B,E] | z [B,D][B,D] z [B,D][B,D] | z FF z FF | %8
 z [B,E][B,E] z [B,E][B,E] | z [=B,DG][B,DG] z [B,DG][B,DG] | z [CEG][CEG] z [CEG][CEG] | %11
 z [=B,DG][B,DG]"_cresc." z [B,DG]!<(![B,DG] | !fermata![CEG]3!<)! z z2 | %13
 z [CFA][CFA] z [CFA][CFA] | z [B,EG][B,EG] z [B,EG][B,EG] | z [B,DF][B,DF] z [B,DF][B,DF] | %16
 z [B,EG][B,EG] z [B,EG][B,EG] | z [=B,DG][B,DG] z [B,DG][B,DG] | z [CEG][CEG] z [CEG][CEG] | %19
!<(! z [=B,DG][B,DG] z [B,DG][B,DG]!<)! | !fermata![CEG]3 z z2 | z!p! [CFA][CFA] z [CFA][CFA] | %22
 z [B,EG][B,EG] z [B,EG][B,EG] | z [B,DF][B,DF] z [B,DF][B,DF] | [B,EG]2 (e' f'e') z | %25
!mf! d'2 c' (c'd'c') | b2 (g bc'b) | (afg agf) | e2 z z2 !fermata!z |] %29
V:3
 z | [E,,E,]2 z [E,,E,]2 z | [B,,,B,,]2 z [B,,,B,,]2 z | [D,,D,]2 z [D,,D,]2 z | %4
 [E,,E,]2 z [E,,E,]2 z | [E,,E,]2 z [E,,E,]2 z | [B,,,B,,]2 z [B,,,B,,]2 z | %7
 [D,,D,]2 z [D,,D,]2 z | [E,,E,]2 z [E,,E,]2 z | G,2 z G,,2 z | C,2 z C,,2 z | =B,,2 z G,,2 z | %12
 !fermata!C,3 z z2 | A,,2 z A,,2 z | B,,2 z B,,2 z | [B,,,B,,]2 z [B,,,B,,]2 z | %16
 [E,,E,]2 z [E,,E,]2 z | G,2 z G,,2 z | C,2 z C,,2 z | =B,,2 z G,,2 z | C,3 z z2 | A,,2 z A,,2 z | %22
 B,,2 z B,,2 z | [B,,,B,,]2 z [B,,,B,,]2 z | [E,,E,]B,,G,, E,,2 z | %25
 A,,[C,F,A,][C,F,A,] A,,[C,F,A,][C,F,A,] | B,,[E,G,B,][E,G,B,] B,,[E,G,B,][E,G,B,] | %27
 B,,[D,F,B,][D,F,B,] B,,[D,F,B,][D,F,B,] | E,B,,G,, E,,2 !fermata!z |] %29
V:4
 x | x G, G, x G,G, | x [F,A,] [F,A,] x G,G, | x [G,A,] [G,A,] x G,G, | x G, G, x G,G, | %5
 x G, G, x G,G, | x F, F, x F,F, | x [A,B,] [A,B,] x [A,B,] [A,B,] | x G, G, x G,G, | x6 | x6 | %11
 x6 | x6 | x6 | x6 | x6 | x6 | x6 | x6 | x6 | x6 | x6 | x6 | x6 | x6 | x6 | x6 | x6 | x6 |] %29

